icons/glyphs/glyph-xray.svg

<?xml version="1.0" encoding="UTF-8" standalone="no"?><svg height="16" viewBox="0 0 4.2333333 4.2333333" width="16" xmlns="http://www.w3.org/2000/svg"><sodipodi:namedview/><metadata><rdf:RDF><cc:Work><dc:format>image/svg+xml</dc:format><dc:type/><dc:title/></cc:Work></rdf:RDF></metadata><path d="m0 0v11.767578c.43586741-.421585.82903551-.832399 1.1035156-1.179687.2866337-.362668.5084493-.6852271.4492188-1.0312504-.1341034-.7834235-.5004583-1.9597644.2578125-2.671875.3555368-.3338704.8444131-.5311208 1.3183593-.5546875.4739464-.0235666.9327007.1252829 1.234375.484375.040221.0478836.0790388.1008308.1132813.15625.4574615.7404628.6862488 1.1788621 1.0585937 1.5683594.3651924.396212.7898787.6529772 1.5 1.15625.0530918.0377031.1012034.0779664.1464844.1210937.6786785.6474688.4827631 1.8774018-.2285156 2.5449218-.7585383.711825-1.9101924.273115-2.6835938.089844-.341597-.080949-.6785658.119636-1.0585937.382812-1.0336849.715849-2.34492535 2.057845-3.2109375 2.970704v.195312h16v-6.0820312c-1.003028-.1542088-2.051945-.2894006-2.777344-.2773438-.462193.0076724-.851657.0397917-1.082031.3046875-.521587.5997375-1.201152 1.6284085-2.2324219 1.4921875-.967042-.127774-1.8439546-1.011893-1.6699219-1.9335938.011641-.0614361.0276515-.123967.0488282-.1855468.2836346-.8228655.4791472-1.2776886.5449218-1.8125.0754999-.5335246.005218-1.0242661-.0546874-1.8925782-.0044977-.0649888-.0047853-.1290504 0-.1914062.0626526-.8183432.8952418-1.3987142 1.7500002-1.4453125.122108-.0066569.244358-.0023368.365234.0136719 1.03122.136611 1.421828 1.304801 1.769531 2.0195312.153574.3156813.520543.4485724.964844.5761719.60886.1748542 1.487944.3031027 2.373047.4101563v-6.9960938zm6.5957031 3.9726562c.2975058-.0262841.5568121.0123423.71875.1445313.6477517.5287559.618266 3.3913744-.125 3.6601563-.7432656.2687817-2.8056588-2.0077342-2.7617187-2.6113282.0329544-.4526952 1.2754513-1.1145065 2.1679687-1.1933594z" fill="#d0d0d0" stroke-width="1.7" transform="scale(.26458333)"/></svg>

<?xml version="1.0" encoding="UTF-8" standalone="no"?>
<!-- Created with Inkscape (http://www.inkscape.org/) -->

<svg
     xmlns:dc="http://purl.org/dc/elements/1.1/"
     xmlns:cc="http://creativecommons.org/ns#"
     xmlns:rdf="http://www.w3.org/1999/02/22-rdf-syntax-ns#"
     xmlns:svg="http://www.w3.org/2000/svg"
     xmlns="http://www.w3.org/2000/svg"
     xmlns:sodipodi="http://sodipodi.sourceforge.net/DTD/sodipodi-0.dtd"
     xmlns:inkscape="http://www.inkscape.org/namespaces/inkscape"
     width="16"
     height="16"
     viewBox="0 0 4.2333333 4.2333333"
     version="1.1"
     id="svg8"
     inkscape:version="0.92+devel (78cebbf91a, 2017-07-21, custom)"
     sodipodi:docname="glyph-xray.svg">
    <defs
         id="defs2" />
    <sodipodi:namedview
         id="base"
         pagecolor="#002466"
         bordercolor="#ffffff"
         borderopacity="0.38039216"
         inkscape:pageopacity="1"
         inkscape:pageshadow="2"
         inkscape:zoom="18.959301"
         inkscape:cx="27.3286"
         inkscape:cy="7.7214356"
         inkscape:document-units="px"
         inkscape:current-layer="svg8"
         inkscape:document-rotation="0"
         showgrid="false"
         inkscape:showpageshadow="false"
         borderlayer="true"
         inkscape:window-width="1920"
         inkscape:window-height="1051"
         inkscape:window-x="0"
         inkscape:window-y="0"
         inkscape:window-maximized="1"
         units="px"
         inkscape:snap-page="true"
         inkscape:snap-grids="false"
         inkscape:snap-to-guides="false"
         inkscape:object-paths="true" />
    <metadata
         id="metadata5">
        <rdf:RDF>
            <cc:Work
                 rdf:about="">
                <dc:format>image/svg+xml</dc:format>
                <dc:type
                     rdf:resource="http://purl.org/dc/dcmitype/StillImage" />
                <dc:title></dc:title>
            </cc:Work>
        </rdf:RDF>
    </metadata>
    <path
         style="fill:#d0d0d0;stroke-width:1.70000005"
         d="M 0 0 L 0 11.767578 C 0.43586741 11.345993 0.82903551 10.935179 1.1035156 10.587891 C 1.3901493 10.225223 1.6119649 9.9026639 1.5527344 9.5566406 C 1.418631 8.7732171 1.0522761 7.5968762 1.8105469 6.8847656 C 2.1660837 6.5508952 2.65496 6.3536448 3.1289062 6.3300781 C 3.6028526 6.3065115 4.0616069 6.455361 4.3632812 6.8144531 C 4.4035022 6.8623367 4.44232 6.9152839 4.4765625 6.9707031 C 4.934024 7.7111659 5.1628113 8.1495652 5.5351562 8.5390625 C 5.9003486 8.9352745 6.3250349 9.1920397 7.0351562 9.6953125 C 7.088248 9.7330156 7.1363596 9.7732789 7.1816406 9.8164062 C 7.8603191 10.463875 7.6644037 11.693808 6.953125 12.361328 C 6.1945867 13.073153 5.0429326 12.634443 4.2695312 12.451172 C 3.9279342 12.370223 3.5909654 12.570808 3.2109375 12.833984 C 2.1772526 13.549833 0.86601215 14.891829 0 15.804688 L 0 16 L 16 16 L 16 9.9179688 C 14.996972 9.76376 13.948055 9.6285682 13.222656 9.640625 C 12.760463 9.6482974 12.370999 9.6804167 12.140625 9.9453125 C 11.619038 10.54505 10.939473 11.573721 9.9082031 11.4375 C 8.9411611 11.309726 8.0642485 10.425607 8.2382812 9.5039062 C 8.2499222 9.4424701 8.2659327 9.3799392 8.2871094 9.3183594 C 8.570744 8.4954939 8.7662566 8.0406708 8.8320312 7.5058594 C 8.9075311 6.9723348 8.8372492 6.4815933 8.7773438 5.6132812 C 8.7728461 5.5482924 8.7725585 5.4842308 8.7773438 5.421875 C 8.8399964 4.6035318 9.6725856 4.0231608 10.527344 3.9765625 C 10.649452 3.9699056 10.771702 3.9742257 10.892578 3.9902344 C 11.923798 4.1268454 12.314406 5.2950354 12.662109 6.0097656 C 12.815683 6.3254469 13.182652 6.458338 13.626953 6.5859375 C 14.235813 6.7607917 15.114897 6.8890402 16 6.9960938 L 16 0 L 0 0 z M 6.5957031 3.9726562 C 6.8932089 3.9463721 7.1525152 3.9849985 7.3144531 4.1171875 C 7.9622048 4.6459434 7.9327191 7.5085619 7.1894531 7.7773438 C 6.4461875 8.0461255 4.3837943 5.7696096 4.4277344 5.1660156 C 4.4606888 4.7133204 5.7031857 4.0515091 6.5957031 3.9726562 z "
         transform="scale(0.26458333)"
         id="rect843"
         inkscape:label="#" />
</svg>
